X: 38535
T: Stephen's
R: waltz
M: 3/4
K: Gmajor
|G3 D GB|A2 AB BA|G2 GB AG|EG G2 (3DEF|
G3 D GB|A3 A AG|AB dg (3edB|d2 d2 (3def|
g2 gf ed|dg B2 (3ABc|d2 dB AG|EG GE ED|
EG cd ed|dg B2 AG|AB dB AG|1 G4 GD:|2 G3 A Bd||
|:e3 g (3edB|d2 dB de|de ed ef|g2 gb ag|ge ed eg|
ed B2 AG|AB dg (3edB|d4 (3def|g2 gf ed|
dg B2 (3ABc|d2 GB AG|EG GE ED|EG cd ed|
dg B2 AG|AB dB AG|1 G3 G Bd:|2 G6||

